X:1
T:God rest you, merry gentlemen
C:Traditional
M:4/4
L:1/4
Q:1/4=104
K:Dm
D | DA AG | FE DC | DE FG | A2 D2 | DA AG | FE DC | DE F/G/ A | A2 D2 |]
w: God | rest you mer-ry | gen-tle-men let | noth-ing you dis- | may Re- | mem-ber Christ our | sav-ior was born | on Christ-mas * day | _ _
